assets/works1.svg

<svg viewBox="0 0 67 70" fill="none" xmlns="http://www.w3.org/2000/svg">
  <path d="M66.15 51.6249V15.8374c0-1.6625-1.4-3.0625-3.0625-3.0625H56.875v2.7125h6.2125c.175 0 .35.175.35.35v35.7875H2.7125V15.8374c0-.175.175-.35.35-.35H9.275v-2.7125H3.0625C1.4 12.7749 0 14.1749 0 15.8374v42.4375c0 1.8375 1.6625 3.5 3.4125 3.5H24.675v.875c0 1.1375 0 2.625-.0875 3.325-.0875.4375-.175.6125-.175.7-.0875 0-.175.0875-.175.0875l-.0875.0875c-.175.0875-.6125.2625-1.05.525h-1.6625v2.625h23.45v-2.7125H43.05c-.4375-.175-.7875-.35-1.05-.525-.0875-.0875-.175-.0875-.175-.0875 0-.0875-.0875-.2625-.175-.7-.175-.7-.0875-2.1875-.0875-3.325v-.875h21.7c1.8375 0 2.975-1.75 2.975-3.4125l-.0875-6.7375Zm-27.2125 14.875c.0875.35.0875.6125.175.7875h-12.075c.0875-.2625.175-.525.175-.7875.175-1.05.175-2.45.175-3.85v-.7875H38.85v.875c-.0875 1.3125-.0875 2.7125.0875 3.7625Zm24.2375-7.35H3.4125c-.2625 0-.7-.525-.7-.7875v-3.9375H63.525v4.025c0 .35-.2625.7-.35.7Z" fill="#F86A2E"/>
  <path d="M56.875 17.7622v2.7125h1.575v26.075h-4.2875v-33.6H51.45v36.3125h9.7125v-31.5H56.875ZM12.1625 0v46.55H7.61249V20.475h1.75v-2.7125h-4.375v31.5h9.80001v-46.55H41.825V0H12.1625ZM46.375 6.5624l1.225 1.225h-1.225v-1.225ZM43.6625.0874023V10.4999H54.075L43.6625.0874023Z" fill="#F86A2E"/>
  <path d="M45.4125 12.7749h-18.9v2.7125h18.9v-2.7125ZM45.4125 17.6753h-18.9v2.7125h18.9v-2.7125ZM20.9125 19.425 18.025 17.5l1.4-2.275.9625.6125 2.1-2.7125 2.1 1.6625-3.675 4.6375ZM45.4125 25.2876h-18.9v2.7125h18.9v-2.7125ZM45.4125 30.1875h-18.9V32.9h18.9v-2.7125ZM20.9125 31.9372l-2.8875-1.8375 1.4-2.275.9625.525 2.1-2.7125 2.1 1.75-3.675 4.55ZM45.4125 37.8872h-18.9v2.7125h18.9v-2.7125ZM45.4125 42.6997h-18.9v2.7125h18.9v-2.7125ZM20.9125 44.5378l-2.8875-1.925 1.4-2.275.9625.6125 2.1-2.7125 2.1 1.6625-3.675 4.6375Z" fill="#fff"/>
</svg>

<svg width="67" height="70" viewBox="0 0 67 70" fill="none" xmlns="http://www.w3.org/2000/svg">
<path d="M66.15 51.6249V15.8374C66.15 14.1749 64.75 12.7749 63.0875 12.7749H56.875V15.4874H63.0875C63.2625 15.4874 63.4375 15.6624 63.4375 15.8374V51.6249H2.7125V15.8374C2.7125 15.6624 2.8875 15.4874 3.0625 15.4874H9.275V12.7749H3.0625C1.4 12.7749 0 14.1749 0 15.8374V54.3374V58.2749C0 60.1124 1.6625 61.7749 3.4125 61.7749H24.675C24.675 62.0374 24.675 62.2999 24.675 62.6499C24.675 63.7874 24.675 65.2749 24.5875 65.9749C24.5 66.4124 24.4125 66.5874 24.4125 66.6749C24.325 66.6749 24.2375 66.7624 24.2375 66.7624L24.15 66.8499C23.975 66.9374 23.5375 67.1124 23.1 67.3749H21.4375V69.9999H42.525H44.8875V67.2874H43.05C42.6125 67.1124 42.2625 66.9374 42 66.7624C41.9125 66.6749 41.825 66.6749 41.825 66.6749C41.825 66.5874 41.7375 66.4124 41.65 65.9749C41.475 65.2749 41.5625 63.7874 41.5625 62.6499C41.5625 62.3874 41.5625 62.0374 41.5625 61.7749H63.2625C65.1 61.7749 66.2375 60.0249 66.2375 58.3624L66.15 51.6249ZM38.9375 66.4999C39.025 66.8499 39.025 67.1124 39.1125 67.2874H27.0375C27.125 67.0249 27.2125 66.7624 27.2125 66.4999C27.3875 65.4499 27.3875 64.0499 27.3875 62.6499C27.3875 62.3874 27.3875 62.1249 27.3875 61.8624H38.85C38.85 62.1249 38.85 62.3874 38.85 62.7374C38.7625 64.0499 38.7625 65.4499 38.9375 66.4999ZM63.175 59.1499H3.4125C3.15 59.1499 2.7125 58.6249 2.7125 58.3624V54.4249H63.525V58.4499C63.525 58.7999 63.2625 59.1499 63.175 59.1499Z" fill="#F86A2E"/>
<path d="M56.875 17.7622V20.4747H58.45V46.5497H54.1625V12.9497H51.45V47.8622V49.2622H61.1625V17.7622H56.875Z" fill="#F86A2E"/>
<path d="M12.1625 0V46.55H7.61249V20.475H9.36249V17.7625H4.98749V49.2625H14.7875V47.8625V2.7125H41.825V0H12.1625Z" fill="#F86A2E"/>
<path d="M46.375 6.5624L47.6 7.7874H46.375V6.5624ZM43.6625 0.0874023V10.4999H54.075L43.6625 0.0874023Z" fill="#F86A2E"/>
<path d="M45.4125 12.7749H26.5125V15.4874H45.4125V12.7749Z" fill="white"/>
<path d="M45.4125 17.6753H26.5125V20.3878H45.4125V17.6753Z" fill="white"/>
<path d="M20.9125 19.425L18.025 17.5L19.425 15.225L20.3875 15.8375L22.4875 13.125L24.5875 14.7875L20.9125 19.425Z" fill="white"/>
<path d="M45.4125 25.2876H26.5125V28.0001H45.4125V25.2876Z" fill="white"/>
<path d="M45.4125 30.1875H26.5125V32.9H45.4125V30.1875Z" fill="white"/>
<path d="M20.9125 31.9372L18.025 30.0997L19.425 27.8247L20.3875 28.3497L22.4875 25.6372L24.5875 27.3872L20.9125 31.9372Z" fill="white"/>
<path d="M45.4125 37.8872H26.5125V40.5997H45.4125V37.8872Z" fill="white"/>
<path d="M45.4125 42.6997H26.5125V45.4122H45.4125V42.6997Z" fill="white"/>
<path d="M20.9125 44.5378L18.025 42.6128L19.425 40.3378L20.3875 40.9503L22.4875 38.2378L24.5875 39.9003L20.9125 44.5378Z" fill="white"/>
</svg>
